svg/m/IR.svg

<svg width="20" height="15" viewBox="0 0 20 15" fill="none" xmlns="http://www.w3.org/2000/svg">
<g clip-path="url(#clip0_270_60952)">
<rect width="20" height="15" fill="white"/>
<path fill-rule="evenodd" clip-rule="evenodd" d="M0 0V15H20V0H0Z" fill="#F7FCFF"/>
<mask id="mask0_270_60952" style="mask-type:luminance" maskUnits="userSpaceOnUse" x="0" y="0" width="20" height="15">
<path fill-rule="evenodd" clip-rule="evenodd" d="M0 0V15H20V0H0Z" fill="white"/>
</mask>
<g mask="url(#mask0_270_60952)">
<path fill-rule="evenodd" clip-rule="evenodd" d="M0 0V5H20V0H0Z" fill="#5EAA22"/>
<path fill-rule="evenodd" clip-rule="evenodd" d="M0 10V15H20V10H0Z" fill="#E31D1C"/>
<path d="M0.232896 10.8543H-1.18839" stroke="#F7FCFF" stroke-width="0.625"/>
<path d="M-1.20303 11.4171V11.0908H-0.740367V11.4061H-0.272849V11.0912H-0.515404" stroke="#F7FCFF" stroke-width="0.625"/>
<path d="M0.211423 11.4038H-0.0241623V11.0977H0.471856V10.8469V11.4038H0.696317V10.8469" stroke="#F7FCFF" stroke-width="0.625"/>
<path d="M0.948841 10.88C0.948841 10.9108 0.948841 11.4062 0.948841 11.4062H0.715851" stroke="#F7FCFF" stroke-width="0.625"/>
<path d="M2.67192 10.8543H1.25064" stroke="#F7FCFF" stroke-width="0.625"/>
<path d="M1.23599 11.4171V11.0908H1.69866V11.4061H2.16618V11.0912H1.92362" stroke="#F7FCFF" stroke-width="0.625"/>
<path d="M2.694 11.4038H2.45841V11.0977H2.95443V10.8469V11.4038H3.17889V10.8469" stroke="#F7FCFF" stroke-width="0.625"/>
<path d="M3.43142 10.88C3.43142 10.9108 3.43142 11.4062 3.43142 11.4062H3.19843" stroke="#F7FCFF" stroke-width="0.625"/>
<path d="M5.1545 10.8543H3.73322" stroke="#F7FCFF" stroke-width="0.625"/>
<path d="M3.71857 11.4171V11.0908H4.18123V11.4061H4.64875V11.0912H4.4062" stroke="#F7FCFF" stroke-width="0.625"/>
<path d="M5.13302 11.4038H4.89744V11.0977H5.39346V10.8469V11.4038H5.61792V10.8469" stroke="#F7FCFF" stroke-width="0.625"/>
<path d="M5.87044 10.88C5.87044 10.9108 5.87044 11.4062 5.87044 11.4062H5.63745" stroke="#F7FCFF" stroke-width="0.625"/>
<path d="M7.59352 10.8543H6.17224" stroke="#F7FCFF" stroke-width="0.625"/>
<path d="M6.15759 11.4171V11.0908H6.62026V11.4061H7.08778V11.0912H6.84522" stroke="#F7FCFF" stroke-width="0.625"/>
<path d="M7.57205 11.4038H7.33646V11.0977H7.83248V10.8469V11.4038H8.05694V10.8469" stroke="#F7FCFF" stroke-width="0.625"/>
<path d="M8.30947 10.88C8.30947 10.9108 8.30947 11.4062 8.30947 11.4062H8.07648" stroke="#F7FCFF" stroke-width="0.625"/>
<path d="M10.0325 10.8543H8.61127" stroke="#F7FCFF" stroke-width="0.625"/>
<path d="M8.59662 11.4171V11.0908H9.05929V11.4061H9.5268V11.0912H9.28425" stroke="#F7FCFF" stroke-width="0.625"/>
<path d="M10.0546 11.4038H9.81905V11.0977H10.3151V10.8469V11.4038H10.5395V10.8469" stroke="#F7FCFF" stroke-width="0.625"/>
<path d="M10.792 10.88C10.792 10.9108 10.792 11.4062 10.792 11.4062H10.5591" stroke="#F7FCFF" stroke-width="0.625"/>
<path d="M12.5151 10.8543H11.0938" stroke="#F7FCFF" stroke-width="0.625"/>
<path d="M11.0792 11.4171V11.0908H11.5419V11.4061H12.0094V11.0912H11.7668" stroke="#F7FCFF" stroke-width="0.625"/>
<path d="M12.5372 11.4038H12.3016V11.0977H12.7976V10.8469V11.4038H13.0221V10.8469" stroke="#F7FCFF" stroke-width="0.625"/>
<path d="M13.2746 10.88C13.2746 10.9108 13.2746 11.4062 13.2746 11.4062H13.0416" stroke="#F7FCFF" stroke-width="0.625"/>
<path d="M14.9977 10.8543H13.5764" stroke="#F7FCFF" stroke-width="0.625"/>
<path d="M13.5618 11.4171V11.0908H14.0244V11.4061H14.492V11.0912H14.2494" stroke="#F7FCFF" stroke-width="0.625"/>
<path d="M15.0198 11.4038H14.7842V11.0977H15.2802V10.8469V11.4038H15.5047V10.8469" stroke="#F7FCFF" stroke-width="0.625"/>
<path d="M15.7572 10.88C15.7572 10.9108 15.7572 11.4062 15.7572 11.4062H15.5242" stroke="#F7FCFF" stroke-width="0.625"/>
<path d="M17.4803 10.8543H16.059" stroke="#F7FCFF" stroke-width="0.625"/>
<path d="M16.0443 11.4171V11.0908H16.507V11.4061H16.9745V11.0912H16.732" stroke="#F7FCFF" stroke-width="0.625"/>
<path d="M17.4588 11.4038H17.2232V11.0977H17.7192V10.8469V11.4038H17.9437V10.8469" stroke="#F7FCFF" stroke-width="0.625"/>
<path d="M18.1962 10.88C18.1962 10.9108 18.1962 11.4062 18.1962 11.4062H17.9632" stroke="#F7FCFF" stroke-width="0.625"/>
<path d="M19.9193 10.8543H18.498" stroke="#F7FCFF" stroke-width="0.625"/>
<path d="M18.4834 11.4171V11.0908H18.946V11.4061H19.4136V11.0912H19.171" stroke="#F7FCFF" stroke-width="0.625"/>
<path d="M20.0285 11.4038H19.7929V11.0977H20.2889V10.8469V11.4038H20.5134V10.8469" stroke="#F7FCFF" stroke-width="0.625"/>
<path d="M0.232896 3.22933H-1.18839" stroke="#F7FCFF" stroke-width="0.625"/>
<path d="M-1.20303 3.79205V3.4658H-0.740367V3.7811H-0.272849V3.46615H-0.515404" stroke="#F7FCFF" stroke-width="0.625"/>
<path d="M0.211423 3.77881H-0.0241623V3.47267H0.471856V3.22188V3.77881H0.696317V3.22188" stroke="#F7FCFF" stroke-width="0.625"/>
<path d="M0.948841 3.255C0.948841 3.28579 0.948841 3.78116 0.948841 3.78116H0.715851" stroke="#F7FCFF" stroke-width="0.625"/>
<path d="M2.67192 3.22933H1.25064" stroke="#F7FCFF" stroke-width="0.625"/>
<path d="M1.23599 3.79205V3.4658H1.69866V3.7811H2.16618V3.46615H1.92362" stroke="#F7FCFF" stroke-width="0.625"/>
<path d="M2.694 3.77881H2.45841V3.47267H2.95443V3.22188V3.77881H3.17889V3.22188" stroke="#F7FCFF" stroke-width="0.625"/>
<path d="M3.43142 3.255C3.43142 3.28579 3.43142 3.78116 3.43142 3.78116H3.19843" stroke="#F7FCFF" stroke-width="0.625"/>
<path d="M5.1545 3.22933H3.73322" stroke="#F7FCFF" stroke-width="0.625"/>
<path d="M3.71857 3.79205V3.4658H4.18123V3.7811H4.64875V3.46615H4.4062" stroke="#F7FCFF" stroke-width="0.625"/>
<path d="M5.13302 3.77881H4.89744V3.47267H5.39346V3.22188V3.77881H5.61792V3.22188" stroke="#F7FCFF" stroke-width="0.625"/>
<path d="M5.87044 3.255C5.87044 3.28579 5.87044 3.78116 5.87044 3.78116H5.63745" stroke="#F7FCFF" stroke-width="0.625"/>
<path d="M7.59352 3.22933H6.17224" stroke="#F7FCFF" stroke-width="0.625"/>
<path d="M6.15759 3.79205V3.4658H6.62026V3.7811H7.08778V3.46615H6.84522" stroke="#F7FCFF" stroke-width="0.625"/>
<path d="M7.57205 3.77881H7.33646V3.47267H7.83248V3.22188V3.77881H8.05694V3.22188" stroke="#F7FCFF" stroke-width="0.625"/>
<path d="M8.30947 3.255C8.30947 3.28579 8.30947 3.78116 8.30947 3.78116H8.07648" stroke="#F7FCFF" stroke-width="0.625"/>
<path d="M10.0325 3.22933H8.61127" stroke="#F7FCFF" stroke-width="0.625"/>
<path d="M8.59662 3.79205V3.4658H9.05929V3.7811H9.5268V3.46615H9.28425" stroke="#F7FCFF" stroke-width="0.625"/>
<path d="M10.0546 3.77881H9.81905V3.47267H10.3151V3.22188V3.77881H10.5395V3.22188" stroke="#F7FCFF" stroke-width="0.625"/>
<path d="M10.792 3.255C10.792 3.28579 10.792 3.78116 10.792 3.78116H10.5591" stroke="#F7FCFF" stroke-width="0.625"/>
<path d="M12.5151 3.22933H11.0938" stroke="#F7FCFF" stroke-width="0.625"/>
<path d="M11.0792 3.79205V3.4658H11.5419V3.7811H12.0094V3.46615H11.7668" stroke="#F7FCFF" stroke-width="0.625"/>
<path d="M12.5372 3.77881H12.3016V3.47267H12.7976V3.22188V3.77881H13.0221V3.22188" stroke="#F7FCFF" stroke-width="0.625"/>
<path d="M13.2746 3.255C13.2746 3.28579 13.2746 3.78116 13.2746 3.78116H13.0416" stroke="#F7FCFF" stroke-width="0.625"/>
<path d="M14.9977 3.22933H13.5764" stroke="#F7FCFF" stroke-width="0.625"/>
<path d="M13.5618 3.79205V3.4658H14.0244V3.7811H14.492V3.46615H14.2494" stroke="#F7FCFF" stroke-width="0.625"/>
<path d="M15.0198 3.77881H14.7842V3.47267H15.2802V3.22188V3.77881H15.5047V3.22188" stroke="#F7FCFF" stroke-width="0.625"/>
<path d="M15.7572 3.255C15.7572 3.28579 15.7572 3.78116 15.7572 3.78116H15.5242" stroke="#F7FCFF" stroke-width="0.625"/>
<path d="M17.4803 3.22933H16.059" stroke="#F7FCFF" stroke-width="0.625"/>
<path d="M16.0443 3.79205V3.4658H16.507V3.7811H16.9745V3.46615H16.732" stroke="#F7FCFF" stroke-width="0.625"/>
<path d="M17.4588 3.77881H17.2232V3.47267H17.7192V3.22188V3.77881H17.9437V3.22188" stroke="#F7FCFF" stroke-width="0.625"/>
<path d="M18.1962 3.255C18.1962 3.28579 18.1962 3.78116 18.1962 3.78116H17.9632" stroke="#F7FCFF" stroke-width="0.625"/>
<path d="M19.9193 3.22933H18.498" stroke="#F7FCFF" stroke-width="0.625"/>
<path d="M18.4834 3.79205V3.4658H18.946V3.7811H19.4136V3.46615H19.171" stroke="#F7FCFF" stroke-width="0.625"/>
<path d="M20.0285 3.77881H19.7929V3.47267H20.2889V3.22188V3.77881H20.5134V3.22188" stroke="#F7FCFF" stroke-width="0.625"/>
<path fill-rule="evenodd" clip-rule="evenodd" d="M9.12891 5.15625C9.12891 5.15625 9.39599 5.29688 9.66935 5.29688C9.94272 5.29688 10.2178 5.15625 10.2178 5.15625V5.34375C10.2178 5.34375 9.9175 5.48438 9.65156 5.48438C9.38562 5.48438 9.12891 5.34375 9.12891 5.34375V5.15625ZM7.16023 7.36913C7.16023 6.25788 8.68648 5.53125 8.68648 5.53125C8.68648 5.53125 7.80433 6.00388 7.80433 7.32256C7.80433 8.64123 8.26227 9.21229 8.26227 9.21229C8.26227 9.21229 7.16023 8.48038 7.16023 7.36913ZM12.3088 7.3078C12.3088 6.19655 10.784 5.53125 10.784 5.53125C10.784 5.53125 11.6661 6.00388 11.6661 7.32256C11.6661 8.64123 11.2082 9.21229 11.2082 9.21229C11.2082 9.21229 12.3088 8.41905 12.3088 7.3078ZM8.20218 7.61099C8.14402 6.50126 9.06719 5.50658 9.06719 5.50658C9.06719 5.50658 8.73118 5.96365 8.80019 7.28052C8.82389 7.73267 9.00198 8.40538 9.22637 8.80199V5.57812H10.1639V8.82995C10.3886 8.45948 10.5617 7.82785 10.5857 7.36913C10.6547 6.05226 10.3348 5.50658 10.3348 5.50658C10.3348 5.50658 11.258 6.50126 11.1998 7.61099C11.1652 8.27191 10.6566 8.97089 10.251 9.42817C10.4481 9.47212 10.7123 9.52571 11.0755 9.59742C11.0833 9.6376 11.0023 9.63573 10.8415 9.63204C10.6639 9.62795 10.389 9.62163 10.0285 9.66718C9.86277 9.83705 9.74741 9.93774 9.74741 9.93774C9.74741 9.93774 9.72918 9.9131 9.70101 9.87902C9.67284 9.9131 9.6546 9.93774 9.6546 9.93774C9.6546 9.93774 9.53925 9.83705 9.37351 9.66719C9.01302 9.62163 8.73807 9.62795 8.5605 9.63204C8.39969 9.63573 8.31875 9.6376 8.3265 9.59742C8.68971 9.52571 8.95394 9.47212 9.15106 9.42817C8.74537 8.97089 8.23681 8.27191 8.20218 7.61099Z" fill="#E31D1C"/>
</g>
</g>
<defs>
<clipPath id="clip0_270_60952">
<rect width="20" height="15" fill="white"/>
</clipPath>
</defs>
</svg>

<svg width="20" height="15" fill="none" xmlns="http://www.w3.org/2000/svg">
  <mask id="a" maskUnits="userSpaceOnUse" x="0" y="0" width="20" height="15">
    <path fill="#fff" d="M0 0h20v15H0z"/>
  </mask>
  <g mask="url(#a)">
    <path fill-rule="evenodd" clip-rule="evenodd" d="M0 0v15h20V0H0z" fill="#F7FCFF"/>
    <mask id="b" maskUnits="userSpaceOnUse" x="0" y="0" width="20" height="15">
      <path fill-rule="evenodd" clip-rule="evenodd" d="M0 0v15h20V0H0z" fill="#fff"/>
    </mask>
    <g mask="url(#b)">
      <path fill-rule="evenodd" clip-rule="evenodd" d="M0 0v5h20V0H0z" fill="#5EAA22"/>
      <path fill-rule="evenodd" clip-rule="evenodd" d="M0 10v5h20v-5H0z" fill="#E31D1C"/>
      <path d="M.233 10.854h-1.421m-.015.563v-.326h.463v.315h.467v-.315h-.242m.726.313h-.235v-.306h.496v-.251.557h.224v-.557m.253.033v.526H.716m1.956-.552H1.25m-.014.563v-.326h.463v.315h.467v-.315h-.242m.77.313h-.236v-.306h.496v-.251.557h.225v-.557m.252.033v.526h-.233m1.956-.552h-1.42m-.015.563v-.326h.462v.315h.468v-.315h-.243m.727.313h-.236v-.306h.496v-.251.557h.225v-.557m.252.033v.526h-.233m1.957-.552H6.172m-.014.563v-.326h.462v.315h.468v-.315h-.243m.727.313h-.236v-.306h.496v-.251.557h.225v-.557m.253.033v.526h-.234m1.957-.552H8.61m-.013.563v-.326h.462v.315h.468v-.315h-.243m.771.313h-.236v-.306h.496v-.251.557h.225v-.557m.252.033v.526h-.233m1.956-.552h-1.421m-.014.563v-.326h.462v.315h.467v-.315h-.242m.77.313h-.235v-.306h.496v-.251.557h.224v-.557m.253.033v.526h-.233m1.956-.552h-1.422m-.014.563v-.326h.462v.315h.468v-.315h-.243m.771.313h-.236v-.306h.496v-.251.557h.225v-.557m.252.033v.526h-.233m1.956-.552h-1.42m-.016.563v-.326h.463v.315h.467v-.315h-.242m.727.313h-.236v-.306h.496v-.251.557h.225v-.557m.252.033v.526h-.233m1.957-.552h-1.422m-.015.563v-.326h.463v.315h.468v-.315h-.243m.858.313h-.236v-.306h.496v-.251.557h.224v-.557M.233 3.23h-1.421m-.015.562v-.326h.463v.315h.467v-.315h-.242m.726.313h-.235v-.306h.496v-.251.557h.224v-.557m.253.033v.526H.716m1.956-.551H1.25m-.014.562v-.326h.463v.315h.467v-.315h-.242m.77.313h-.236v-.306h.496v-.251.557h.225v-.557m.252.033v.526h-.233m1.956-.551h-1.42m-.015.562v-.326h.462v.315h.468v-.315h-.243m.727.313h-.236v-.306h.496v-.251.557h.225v-.557m.252.033v.526h-.233m1.957-.551H6.172m-.014.562v-.326h.462v.315h.468v-.315h-.243m.727.313h-.236v-.306h.496v-.251.557h.225v-.557m.253.033v.526h-.234m1.957-.551H8.61m-.013.562v-.326h.462v.315h.468v-.315h-.243m.771.313h-.236v-.306h.496v-.251.557h.225v-.557m.252.033v.526h-.233m1.956-.551h-1.421m-.014.562v-.326h.462v.315h.467v-.315h-.242m.77.313h-.235v-.306h.496v-.251.557h.224v-.557m.253.033v.526h-.233m1.956-.551h-1.422m-.014.562v-.326h.462v.315h.468v-.315h-.243m.771.313h-.236v-.306h.496v-.251.557h.225v-.557m.252.033v.526h-.233m1.956-.551h-1.42m-.016.562v-.326h.463v.315h.467v-.315h-.242m.727.313h-.236v-.306h.496v-.251.557h.225v-.557m.252.033v.526h-.233m1.957-.551h-1.422m-.015.562v-.326h.463v.315h.468v-.315h-.243m.858.313h-.236v-.306h.496v-.251.557h.224v-.557" stroke="#F7FCFF" stroke-width=".625"/>
      <path fill-rule="evenodd" clip-rule="evenodd" d="M9.129 5.156s.267.14.54.14c.274 0 .549-.14.549-.14v.188s-.3.14-.566.14c-.266 0-.523-.14-.523-.14v-.188zM7.16 7.37c0-1.111 1.526-1.838 1.526-1.838s-.882.473-.882 1.792c0 1.318.458 1.89.458 1.89S7.16 8.48 7.16 7.368zm5.149-.061c0-1.111-1.525-1.777-1.525-1.777s.882.473.882 1.792c0 1.318-.458 1.89-.458 1.89s1.1-.794 1.1-1.905zm-4.107.303c-.058-1.11.865-2.104.865-2.104s-.336.457-.267 1.774c.024.452.202 1.124.426 1.521V5.578h.938V8.83c.225-.37.398-1.002.422-1.46.069-1.318-.251-1.863-.251-1.863s.923.994.865 2.104c-.035.66-.543 1.36-.949 1.817.197.044.461.098.825.17.007.04-.074.038-.235.034a5.149 5.149 0 00-.813.035c-.165.17-.28.27-.28.27L9.7 9.88a1.55 1.55 0 00-.046.059s-.116-.101-.281-.27a5.148 5.148 0 00-.814-.036c-.16.004-.241.006-.234-.035.364-.071.628-.125.825-.169-.406-.457-.914-1.156-.949-1.817z" fill="#E31D1C"/>
    </g>
  </g>
</svg>
